X: 022092
T: Belgrave Square
C: Joe Liddy
Z: BB
S: "The Leitrim Fiddler" (Dublin 1981)
N: Uses dotted rhythm
L: 1/8
M: 4/4
R: hornpipe
Q: 1/4 = 160
K: G
ge | dBAB G2 GA | BGAG EGDE | GABd edBd | (3efg dB A2 ge |
dBAB G2 DG | BGAG EGDE | GABd edBd | (3efg dB G2 :|
BA | GABd edBd | (3efg dB AGEF | GABd edBd | (3efg dB A2 BA |
GABd edBd | (3efg af gedB | dega bgag | (3efg dB G2 :|
%%%%%%%%%%%%%%
